icon-themes/sifr_svg/cmd/sc_dataprovider.svg

<svg viewBox="0 0 16 16" xmlns="http://www.w3.org/2000/svg"><path d="m6 1-4 4v10h3v-2h-1v-7h3v-3h5v5h2v-7zm0 8v7h10v-7zm1 1h2v2h-2zm3 0h2v2h-2zm3 0h2v2h-2zm-6 3h2v2h-2zm3 0h2v2h-2zm3 0h2v2h-2z" fill="#555753"/></svg>

<svg xmlns="http://www.w3.org/2000/svg" viewBox="0 0 16 16">
  <path
     style="fill:#555753"
     d="M 6 1 L 2 5 L 2 15 L 5 15 L 5 13 L 4 13 L 4 6 L 7 6 L 7 3 L 12 3 L 12 8 L 14 8 L 14 1 L 6 1 z M 6 9 L 6 16 L 16 16 L 16 9 L 6 9 z M 7 10 L 9 10 L 9 12 L 7 12 L 7 10 z M 10 10 L 12 10 L 12 12 L 10 12 L 10 10 z M 13 10 L 15 10 L 15 12 L 13 12 L 13 10 z M 7 13 L 9 13 L 9 15 L 7 15 L 7 13 z M 10 13 L 12 13 L 12 15 L 10 15 L 10 13 z M 13 13 L 15 13 L 15 15 L 13 15 L 13 13 z "
     />
</svg>
